public/logo/solder-sidekick-logo-dark-bg.svg

<?xml version="1.0" encoding="UTF-8"?>
<svg id="Layer_1" data-name="Layer 1" xmlns="http://www.w3.org/2000/svg" viewBox="0 0 184.25 127.24">
  <defs>
    <style>
      .cls-1 {
        fill: #fff;
      }

      .cls-2 {
        fill: #66c6d0;
      }
    </style>
  </defs>
  <path class="cls-1" d="M113.56,70.72v-3.91c-.2-.05-.14.04-.2.11-1.97,2.51-4.08,3.92-7.41,4.15-11.7.78-16.27-12.86-11.82-21.98,3.71-7.6,13.58-9.37,19.23-2.8.05.06,0,.16.2.11v-12.86h8.47l.13.13v36.92l-.13.13h-8.47ZM106.58,49.81c-6.15.63-7.11,10.16-2.13,13.02,3.7,2.12,8.17-.25,8.9-4.34.82-4.61-1.58-9.21-6.77-8.68Z"/>
  <path class="cls-1" d="M135.19,58.73c.09,1.82.81,3.53,2.37,4.54,1.73,1.12,4.48,1.14,6.1-.19.6-.49.94-1.13,1.39-1.74h8.99c-.05.67-.35,1.41-.62,2.03-5.23,11.97-24.88,9.79-26.65-4.17-1.29-10.19,5.11-17.8,15.59-16.88,8.64.75,13.31,7.86,12.3,16.2l-.13.22h-19.34ZM145.97,53.96c-.17-6.47-10.27-6.32-10.69,0h10.69Z"/>
  <path class="cls-1" d="M60.18,42.25c7.18-.07,13.31,4.26,14.5,11.52,1.68,10.21-5.28,17.88-15.58,17.31-18.1-1.01-17.9-28.63,1.07-28.82ZM59.83,49.73c-7.31.63-6.84,13.28-.37,13.87,9.1.84,8.8-14.59.37-13.87Z"/>
  <path class="cls-1" d="M20.13,32.32v9.43c0,.39,1.09,2.22,1.39,2.6,2.11,2.68,6.97,3.76,10.1,4.93,6.17,2.31,10.75,4.96,10.23,12.44-.31,4.52-3.59,8.45-7.73,10.03l.18-2.65c.04-1.84.19-4.03-1.9-4.75,0-1.55.1-2.84-.52-4.3-.55-1.3-1.54-2.34-2.86-2.87-4.59-1.86-10.51-2.2-14.32-5.67-2.86-2.6-3.63-5.6-3.33-9.42.38-4.89,4.17-8.59,8.77-9.78Z"/>
  <rect class="cls-1" x="79.49" y="33.54" width="8.6" height="37.18"/>
  <path class="cls-1" d="M176.65,42.4v9.04c-2.94.02-6.94-.3-8.27,2.98-.28.7-.46,1.61-.51,2.36-.28,4.44.21,9.18,0,13.65l-.13.3h-8.47v-28.06h8.6v4.52c1.6-2.12,3.58-3.85,6.22-4.51.29-.07,1.05-.27,1.3-.27h1.26Z"/>
  <path class="cls-2" d="M27.32,95.19l-.04-4.08,1.81-1.76.13-15.42c.11-1.18,1.69-1.09,2.59-1.41.73-.26.93-.47,1.01-1.25.11-1.07.19-3.02.1-4.08-.1-1.21-.7-1.71-1.92-1.52v-3.95c0-.08-.35-.99-.42-1.14-.73-1.64-1.67-1.95-3.25-2.48-1.91-.64-3.88-1.11-5.8-1.71v9.3c-.78-.15-1.69.08-1.87.95s-.09,4.03.06,4.99c.23,1.48,3.28.68,3.53,2.2.13.76.09,2.33.11,3.19.09,3.8,0,12.12.05,12.37l1.78,1.64c.03,1.15,0,4.13,0,4.13l1.09,2.51,1.06-2.48Z"/>
  <path class="cls-2" d="M146.75,77.33l-5.95,8.43-.39.73c.73,3.38,1.86,6.66,2.9,9.95l3.17-17.84,4.17-.72.18.1-3.16,19.25-4.52.6.04-.78-5.3.05-1.17-7.44-.48.57-1.4,7.07-4.42.62c1.28-6.66,2.76-13.31,3.43-20.07l4.57.18-1.02,5.63.11.19,3.8-5.98,5.46-.54Z"/>
  <path class="cls-2" d="M27.52,27.2h1.26l2.22,4.39v15.86c-1.55-.48-3.12-.98-4.63-1.59-2.25-.89-4.02-1.84-4.81-4.32l-.02-10.02,2.06-4.19c.25-.26.95-.07,1.31-.13v-5.69c0-.24.46-1,.72-1.11.23-.09.97-.12,1.19-.02.19.09.7.75.7.95v5.86Z"/>
  <path class="cls-2" d="M167.91,97.05c-.06,0-.19.14-.3.09-.34-2.41-.72-4.83-1.05-7.25-.02-.12.08-.26-.13-.22l-.48.74-1.35,6.82-4.48.69c1.4-6.67,2.78-13.37,3.48-20.15l4.6.26-1,5.82,3.87-5.95,5.48-.52c-2.2,2.95-4.43,5.91-6.34,9.04.65,3.67,2.06,7.15,3.04,10.72-.1.03-.19-.09-.22-.09-1.66,0-3.5-.1-5.13,0Z"/>
  <path class="cls-2" d="M108.69,97.92l3.57-19.54c3.35-.67,8.1-1.72,9.8,2.22,1.47,3.42.06,7.88-1.74,10.92-2.43,4.1-6.63,7.2-11.63,6.4ZM113.56,94.44c.16.02.27-.09.39-.17,2.12-1.56,4.67-7.97,4.57-10.55-.05-1.3-1.05-2.24-2.36-2l-2.6,12.72Z"/>
  <path class="cls-2" d="M101.3,83.75c.07-.61.18-1.13-.05-1.73-.56-1.51-2.56-.11-2.78.95-.37,1.78,1.86,2.5,2.96,3.4,1.73,1.43,2.15,3.43,1.96,5.6-.48,5.41-8.63,8.4-11.79,3.48l1.97-3.91c.06-.08.13.04.17.09.97,1.11,2.46,2.27,4.02,1.67.96-.37,1.3-1.03,1.05-2.05-.49-1.97-4.96-3.3-5.57-5.99-.68-2.99,2.34-5.56,4.78-6.64,3.68-1.62,8.48-1.31,7.26,3.95l-3.98,1.19Z"/>
  <path class="cls-2" d="M158.94,83.22s-.26-.46-.45-.55c-.92-.39-1.81,1.16-2.19,1.81-1,1.73-2.76,6.08-2.32,8,.49,2.19,3.14-.64,3.12-1.77l3.21,1.22c-.87,2.14-2.26,4.22-4.34,5.34-2.84,1.54-5.21.37-6.04-2.65-1.56-5.71,2.28-17.04,9.38-16.94,2.38.03,3.72,2.52,3.27,4.65-.5.06-3.42,1.02-3.64.89Z"/>
  <polygon class="cls-2" points="133.28 77.59 132.59 80.89 128.46 81.06 127.55 85.93 131.28 85.75 130.77 88.84 127.12 88.98 126.16 93.96 130.15 93.4 129.94 96.44 121.03 97.92 124.6 78.29 133.28 77.59"/>
  <polygon class="cls-2" points="103.21 97.83 106.6 78.6 110.82 77.85 107.81 97.17 103.21 97.83"/>
  <path class="cls-1" d="M41.34,43.62h-8.95v-11.29c5.12,1.46,8.96,5.83,8.95,11.29Z"/>
  <path class="cls-1" d="M20.13,60.47v3.91c-.71.13-1.34.72-1.63,1.37-.45,1.01-.33,3.57-.29,4.76,0,.15.23.81-.04.73-.43-.13-1.74-1.01-2.16-1.32-3.05-2.23-4.77-5.66-4.84-9.45h8.95Z"/>
</svg>

<?xml version="1.0" encoding="UTF-8" standalone="no"?>
<!DOCTYPE svg PUBLIC "-//W3C//DTD SVG 1.1//EN" "http://www.w3.org/Graphics/SVG/1.1/DTD/svg11.dtd">
<svg width="100%" height="100%" viewBox="0 0 199 128" version="1.1" xmlns="http://www.w3.org/2000/svg" xmlns:xlink="http://www.w3.org/1999/xlink" xml:space="preserve" xmlns:serif="http://www.serif.com/" style="fill-rule:evenodd;clip-rule:evenodd;stroke-linejoin:round;stroke-miterlimit:2;">
    <g id="Artboard1" transform="matrix(1.07519,0,0,1,0,0)">
        <rect x="0" y="0" width="184.25" height="127.24" style="fill:none;"/>
        <g transform="matrix(1,0,0,1,10.3629,0.438032)">
            <g transform="matrix(0.930066,0,0,1,-5.58039,0)">
                <path d="M113.56,70.72L113.56,66.81C113.36,66.76 113.42,66.85 113.36,66.92C111.39,69.43 109.28,70.84 105.95,71.07C94.25,71.85 89.68,58.21 94.13,49.09C97.84,41.49 107.71,39.72 113.36,46.29C113.41,46.35 113.36,46.45 113.56,46.4L113.56,33.54L122.03,33.54L122.16,33.67L122.16,70.59L122.03,70.72L113.56,70.72ZM106.58,49.81C100.43,50.44 99.47,59.97 104.45,62.83C108.15,64.95 112.62,62.58 113.35,58.49C114.17,53.88 111.77,49.28 106.58,49.81Z" style="fill:white;fill-rule:nonzero;"/>
            </g>
            <g transform="matrix(0.930066,0,0,1,-5.58039,0)">
                <path d="M135.19,58.73C135.28,60.55 136,62.26 137.56,63.27C139.29,64.39 142.04,64.41 143.66,63.08C144.26,62.59 144.6,61.95 145.05,61.34L154.04,61.34C153.99,62.01 153.69,62.75 153.42,63.37C148.19,75.34 128.54,73.16 126.77,59.2C125.48,49.01 131.88,41.4 142.36,42.32C151,43.07 155.67,50.18 154.66,58.52L154.53,58.74L135.19,58.74L135.19,58.73ZM145.97,53.96C145.8,47.49 135.7,47.64 135.28,53.96L145.97,53.96Z" style="fill:white;fill-rule:nonzero;"/>
            </g>
            <g transform="matrix(0.930066,0,0,1,-5.58039,0)">
                <path d="M60.18,42.25C67.36,42.18 73.49,46.51 74.68,53.77C76.36,63.98 69.4,71.65 59.1,71.08C41,70.07 41.2,42.45 60.17,42.26L60.18,42.25ZM59.83,49.73C52.52,50.36 52.99,63.01 59.46,63.6C68.56,64.44 68.26,49.01 59.83,49.73Z" style="fill:white;fill-rule:nonzero;"/>
            </g>
            <g transform="matrix(0.930066,0,0,1,-5.58039,0)">
                <path d="M20.13,32.32L20.13,41.75C20.13,42.14 21.22,43.97 21.52,44.35C23.63,47.03 28.49,48.11 31.62,49.28C37.79,51.59 42.37,54.24 41.85,61.72C41.54,66.24 38.26,70.17 34.12,71.75L34.3,69.1C34.34,67.26 34.49,65.07 32.4,64.35C32.4,62.8 32.5,61.51 31.88,60.05C31.33,58.75 30.34,57.71 29.02,57.18C24.43,55.32 18.51,54.98 14.7,51.51C11.84,48.91 11.07,45.91 11.37,42.09C11.75,37.2 15.54,33.5 20.14,32.31L20.13,32.32Z" style="fill:white;fill-rule:nonzero;"/>
            </g>
            <g transform="matrix(0.930066,0,0,1,-5.58039,0)">
                <rect x="79.49" y="33.54" width="8.6" height="37.18" style="fill:white;"/>
            </g>
            <g transform="matrix(0.930066,0,0,1,-5.58039,0)">
                <path d="M176.65,42.4L176.65,51.44C173.71,51.46 169.71,51.14 168.38,54.42C168.1,55.12 167.92,56.03 167.87,56.78C167.59,61.22 168.08,65.96 167.87,70.43L167.74,70.73L159.27,70.73L159.27,42.67L167.87,42.67L167.87,47.19C169.47,45.07 171.45,43.34 174.09,42.68C174.38,42.61 175.14,42.41 175.39,42.41L176.65,42.41L176.65,42.4Z" style="fill:white;fill-rule:nonzero;"/>
            </g>
            <g transform="matrix(0.930066,0,0,1,-5.58039,0)">
                <path d="M27.32,95.19L27.28,91.11L29.09,89.35L29.22,73.93C29.33,72.75 30.91,72.84 31.81,72.52C32.54,72.26 32.74,72.05 32.82,71.27C32.93,70.2 33.01,68.25 32.92,67.19C32.82,65.98 32.22,65.48 31,65.67L31,61.72C31,61.64 30.65,60.73 30.58,60.58C29.85,58.94 28.91,58.63 27.33,58.1C25.42,57.46 23.45,56.99 21.53,56.39L21.53,65.69C20.75,65.54 19.84,65.77 19.66,66.64C19.48,67.51 19.57,70.67 19.72,71.63C19.95,73.11 23,72.31 23.25,73.83C23.38,74.59 23.34,76.16 23.36,77.02C23.45,80.82 23.36,89.14 23.41,89.39L25.19,91.03C25.22,92.18 25.19,95.16 25.19,95.16L26.28,97.67L27.34,95.19L27.32,95.19Z" style="fill:rgb(102,198,208);fill-rule:nonzero;"/>
            </g>
            <g transform="matrix(0.930066,0,0,1,-5.58039,0)">
                <path d="M146.75,77.33L140.8,85.76L140.41,86.49C141.14,89.87 142.27,93.15 143.31,96.44L146.48,78.6L150.65,77.88L150.83,77.98L147.67,97.23L143.15,97.83L143.19,97.05L137.89,97.1L136.72,89.66L136.24,90.23L134.84,97.3L130.42,97.92C131.7,91.26 133.18,84.61 133.85,77.85L138.42,78.03L137.4,83.66L137.51,83.85L141.31,77.87L146.77,77.33L146.75,77.33Z" style="fill:rgb(102,198,208);fill-rule:nonzero;"/>
            </g>
            <g transform="matrix(0.930066,0,0,1,-5.58039,0)">
                <path d="M27.52,27.2L28.78,27.2L31,31.59L31,47.45C29.45,46.97 27.88,46.47 26.37,45.86C24.12,44.97 22.35,44.02 21.56,41.54L21.54,31.52L23.6,27.33C23.85,27.07 24.55,27.26 24.91,27.2L24.91,21.51C24.91,21.27 25.37,20.51 25.63,20.4C25.86,20.31 26.6,20.28 26.82,20.38C27.01,20.47 27.52,21.13 27.52,21.33L27.52,27.2Z" style="fill:rgb(102,198,208);fill-rule:nonzero;"/>
            </g>
            <g transform="matrix(0.930066,0,0,1,-5.58039,0)">
                <path d="M167.91,97.05C167.85,97.05 167.72,97.19 167.61,97.14C167.27,94.73 166.89,92.31 166.56,89.89C166.54,89.77 166.64,89.63 166.43,89.67L165.95,90.41L164.6,97.23L160.12,97.92C161.52,91.25 162.9,84.55 163.6,77.77L168.2,78.03L167.2,83.85L171.07,77.9L176.55,77.38C174.35,80.33 172.12,83.29 170.21,86.42C170.86,90.09 172.27,93.57 173.25,97.14C173.15,97.17 173.06,97.05 173.03,97.05C171.37,97.05 169.53,96.95 167.9,97.05L167.91,97.05Z" style="fill:rgb(102,198,208);fill-rule:nonzero;"/>
            </g>
            <g transform="matrix(0.930066,0,0,1,-5.58039,0)">
                <path d="M108.69,97.92L112.26,78.38C115.61,77.71 120.36,76.66 122.06,80.6C123.53,84.02 122.12,88.48 120.32,91.52C117.89,95.62 113.69,98.72 108.69,97.92ZM113.56,94.44C113.72,94.46 113.83,94.35 113.95,94.27C116.07,92.71 118.62,86.3 118.52,83.72C118.47,82.42 117.47,81.48 116.16,81.72L113.56,94.44Z" style="fill:rgb(102,198,208);fill-rule:nonzero;"/>
            </g>
            <g transform="matrix(0.930066,0,0,1,-5.58039,0)">
                <path d="M101.3,83.75C101.37,83.14 101.48,82.62 101.25,82.02C100.69,80.51 98.69,81.91 98.47,82.97C98.1,84.75 100.33,85.47 101.43,86.37C103.16,87.8 103.58,89.8 103.39,91.97C102.91,97.38 94.76,100.37 91.6,95.45L93.57,91.54C93.63,91.46 93.7,91.58 93.74,91.63C94.71,92.74 96.2,93.9 97.76,93.3C98.72,92.93 99.06,92.27 98.81,91.25C98.32,89.28 93.85,87.95 93.24,85.26C92.56,82.27 95.58,79.7 98.02,78.62C101.7,77 106.5,77.31 105.28,82.57L101.3,83.76L101.3,83.75Z" style="fill:rgb(102,198,208);fill-rule:nonzero;"/>
            </g>
            <g transform="matrix(0.930066,0,0,1,-5.58039,0)">
                <path d="M158.94,83.22C158.94,83.22 158.68,82.76 158.49,82.67C157.57,82.28 156.68,83.83 156.3,84.48C155.3,86.21 153.54,90.56 153.98,92.48C154.47,94.67 157.12,91.84 157.1,90.71L160.31,91.93C159.44,94.07 158.05,96.15 155.97,97.27C153.13,98.81 150.76,97.64 149.93,94.62C148.37,88.91 152.21,77.58 159.31,77.68C161.69,77.71 163.03,80.2 162.58,82.33C162.08,82.39 159.16,83.35 158.94,83.22Z" style="fill:rgb(102,198,208);fill-rule:nonzero;"/>
            </g>
            <g transform="matrix(0.930066,0,0,1,-5.58039,0)">
                <path d="M133.28,77.59L132.59,80.89L128.46,81.06L127.55,85.93L131.28,85.75L130.77,88.84L127.12,88.98L126.16,93.96L130.15,93.4L129.94,96.44L121.03,97.92L124.6,78.29L133.28,77.59Z" style="fill:rgb(102,198,208);fill-rule:nonzero;"/>
            </g>
            <g transform="matrix(0.930066,0,0,1,-5.58039,0)">
                <path d="M103.21,97.83L106.6,78.6L110.82,77.85L107.81,97.17L103.21,97.83Z" style="fill:rgb(102,198,208);fill-rule:nonzero;"/>
            </g>
            <g transform="matrix(0.930066,0,0,1,-5.58039,0)">
                <path d="M41.34,43.62L32.39,43.62L32.39,32.33C37.51,33.79 41.35,38.16 41.34,43.62Z" style="fill:white;fill-rule:nonzero;"/>
            </g>
            <g transform="matrix(0.930066,0,0,1,-5.58039,0)">
                <path d="M20.13,60.47L20.13,64.38C19.42,64.51 18.79,65.1 18.5,65.75C18.05,66.76 18.17,69.32 18.21,70.51C18.21,70.66 18.44,71.32 18.17,71.24C17.74,71.11 16.43,70.23 16.01,69.92C12.96,67.69 11.24,64.26 11.17,60.47L20.13,60.47Z" style="fill:white;fill-rule:nonzero;"/>
            </g>
        </g>
        <g transform="matrix(0.930066,0,0,1,35.8648,24.2235)">
            <path d="M146.226,13.411L146.226,14.096L145.296,14.096L145.296,16.921L144.441,16.921L144.441,14.096L143.511,14.096L143.511,13.411L146.226,13.411Z" style="fill:white;fill-rule:nonzero;"/>
            <path d="M150.631,13.411L150.631,16.921L149.776,16.921L149.776,14.816L148.991,16.921L148.301,16.921L147.511,14.811L147.511,16.921L146.656,16.921L146.656,13.411L147.666,13.411L148.651,15.841L149.626,13.411L150.631,13.411Z" style="fill:white;fill-rule:nonzero;"/>
        </g>
    </g>
</svg>
